X:205
T:The Wedding reel
R:reel
M:4/4
L:1/8
K:D
|: F2BF AFEF | D2DE FABd | e2fd efdB | ABde dBAG |
F2BF AFEF | D2DE FABd | e2fd efdB |1 ABde d2DE :|2 ABde d3B |:
A3f edf2 | A3f edf2 | ABdA BdAB | dBAF E2DE |
F2BF AFEF | D2DE FABd | e2fd efdB |1 ABde d3B :|2 ABde d2DE |]
